Setup/v9/Assets/Themes/Kobe/Gallery.svg

<svg width="20" height="20" viewBox="0 0 20 20" fill="none" xmlns="http://www.w3.org/2000/svg">
<g clip-path="url(#clip0_806_947)">
<rect x="14.5" y="15" width="4" height="4" rx="0.75" stroke="#fff" stroke-linejoin="round"/>
<rect x="8" y="15" width="4" height="4" rx="1" stroke="#fff" stroke-linejoin="round"/>
<rect x="1.5" y="15" width="4" height="4" rx="0.75" stroke="#fff" stroke-linejoin="round"/>
<rect x="1" y="1" width="18" height="11.5" rx="1.5" stroke="#fff" stroke-linejoin="round"/>
<rect x="1" y="1" width="18" height="11.5" rx="1.5" fill="#fff" fill-opacity="0.1"/>
<path d="M4 9.58333L7.04343 5.98311C7.46474 5.48472 8.24281 5.5169 8.62152 6.04839L10.5466 8.75M11.4372 10L10.5466 8.75M10.5466 8.75L11.6748 7.23857C12.0259 6.76828 12.7046 6.69999 13.1423 7.09091L15 8.75" stroke="#fff" stroke-opacity="0.75" stroke-width="0.5" stroke-linecap="round" stroke-linejoin="round"/>
<circle cx="15" cy="5" r="1" fill="#fff" fill-opacity="0.2"/>
<circle cx="15" cy="5" r="0.825" stroke="#fff" stroke-opacity="0.75" stroke-width="0.35"/>
</g>
<defs>
<clipPath id="clip0_806_947">
<rect width="20" height="20" fill="white"/>
</clipPath>
</defs>
</svg>

<svg xmlns="http://www.w3.org/2000/svg" width="20" height="20" fill="none"><g><rect width="4" height="4" x="14.5" y="15" stroke="#ddd" stroke-linejoin="round" rx=".75"/><rect width="4" height="4" x="8" y="15" stroke="#ddd" stroke-linejoin="round" rx="1"/><rect width="4" height="4" x="1.5" y="15" stroke="#ddd" stroke-linejoin="round" rx=".75"/><rect width="18" height="11.5" x="1" y="1" stroke="#ddd" stroke-linejoin="round" rx="1.5"/><rect width="18" height="11.5" x="1" y="1" fill="#fff" fill-opacity=".1" rx="1.5"/><path stroke="#ddd" stroke-linecap="round" stroke-linejoin="round" stroke-opacity=".75" stroke-width=".5" d="m4 9.583 3.043-3.6a1 1 0 0 1 1.579.065l1.925 2.702m.89 1.25-.89-1.25m0 0 1.128-1.511a1 1 0 0 1 1.467-.148L15 8.75"/><circle cx="15" cy="5" r="1" fill="#fff" fill-opacity=".2"/><circle cx="15" cy="5" r=".825" stroke="#ddd" stroke-opacity=".75" stroke-width=".35"/></g></svg>
